public/icons/award.svg

<svg width="66" height="88" viewBox="0 0 66 88" fill="none" xmlns="http://www.w3.org/2000/svg">
<g clip-path="url(#clip0_84_4)">
<path d="M29.8719 0.945288C31.7625 -0.309399 34.2375 -0.309399 36.1281 0.945288L39.1875 2.95623C40.2187 3.62654 41.4219 3.9531 42.6422 3.88435L46.3031 3.66091C48.5719 3.52341 50.7031 4.76091 51.7172 6.78904L53.3672 10.0718C53.9172 11.1719 54.8109 12.0484 55.8937 12.5984L59.2109 14.2656C61.239 15.2797 62.4765 17.4109 62.339 19.6797L62.1156 23.3406C62.0469 24.5609 62.3734 25.7812 63.0437 26.7953L65.0719 29.8547C66.3265 31.7453 66.3265 34.2203 65.0719 36.1109L63.0437 39.1875C62.3734 40.2187 62.0469 41.4219 62.1156 42.6422L62.339 46.3031C62.4765 48.5718 61.239 50.7031 59.2109 51.7172L55.9281 53.3672C54.8281 53.9172 53.9515 54.8109 53.4015 55.8937L51.7344 59.2109C50.7203 61.239 48.589 62.4765 46.3203 62.339L42.6594 62.1156C41.439 62.0469 40.2187 62.3734 39.2047 63.0437L36.1453 65.0719C34.2547 66.3265 31.7797 66.3265 29.889 65.0719L26.8125 63.0437C25.7812 62.3734 24.5781 62.0469 23.3578 62.1156L19.6969 62.339C17.4281 62.4765 15.2969 61.239 14.2828 59.2109L12.6328 55.9281C12.0828 54.8281 11.189 53.9515 10.1062 53.4015L6.78904 51.7344C4.76092 50.7203 3.52342 48.589 3.66092 46.3203L3.88435 42.6594C3.9531 41.439 3.62654 40.2187 2.95623 39.2047L0.945291 36.1281C-0.309396 34.2375 -0.309396 31.7625 0.945291 29.8719L2.95623 26.8125C3.62654 25.7812 3.9531 24.5781 3.88435 23.3578L3.66092 19.6968C3.52342 17.4281 4.76092 15.2969 6.78904 14.2828L10.0719 12.6328C11.1719 12.0656 12.0656 11.1719 12.6156 10.0718L14.2656 6.78904C15.2797 4.76091 17.4109 3.52341 19.6797 3.66091L23.3406 3.88435C24.5609 3.9531 25.7812 3.62654 26.7953 2.95623L29.8719 0.945288ZM46.75 33C46.75 29.3533 45.3013 25.8559 42.7227 23.2773C40.1441 20.6986 36.6467 19.25 33 19.25C29.3533 19.25 25.8559 20.6986 23.2773 23.2773C20.6986 25.8559 19.25 29.3533 19.25 33C19.25 36.6467 20.6986 40.1441 23.2773 42.7227C25.8559 45.3013 29.3533 46.75 33 46.75C36.6467 46.75 40.1441 45.3013 42.7227 42.7227C45.3013 40.1441 46.75 36.6467 46.75 33ZM0.223416 75.9343L7.63123 58.3172C7.6656 58.3344 7.68279 58.3515 7.69998 58.3859L9.34998 61.6687C11.3609 65.6562 15.5375 68.0797 20.0062 67.8219L23.6672 67.5984C23.7015 67.5984 23.7531 67.5984 23.7875 67.6328L26.8469 69.6609C27.7234 70.2281 28.6515 70.675 29.614 70.9844L23.1515 86.3328C22.7562 87.2781 21.8797 87.914 20.8656 88C19.8515 88.0859 18.8719 87.6218 18.3219 86.7625L12.7875 78.289L3.14529 79.7156C2.1656 79.8531 1.18592 79.4578 0.567166 78.6843C-0.0515835 77.9109 -0.171896 76.8453 0.206229 75.9343H0.223416ZM42.8484 86.3156L36.3859 70.9844C37.3484 70.675 38.2765 70.2453 39.1531 69.6609L42.2125 67.6328C42.2469 67.6156 42.2812 67.5984 42.3328 67.5984L45.9937 67.8219C50.4625 68.0797 54.639 65.6562 56.65 61.6687L58.3 58.3859C58.3172 58.3515 58.3344 58.3344 58.3687 58.3172L65.7937 75.9343C66.1719 76.8453 66.0344 77.8937 65.4328 78.6843C64.8312 79.475 63.8344 79.8703 62.8547 79.7156L53.2125 78.289L47.6781 86.7453C47.1281 87.6047 46.1484 88.0687 45.1344 87.9828C44.1203 87.8969 43.2437 87.2437 42.8484 86.3156Z" fill="#132136"/>
</g>
<defs>
<clipPath id="clip0_84_4">
<rect width="66" height="88" fill="white"/>
</clipPath>
</defs>
</svg>

<svg xmlns="http://www.w3.org/2000/svg" width="66" height="88" fill="none"><g clip-path="url(#a)"><path fill="#132136" d="M29.872.945a5.67 5.67 0 0 1 6.256 0l3.06 2.011a5.74 5.74 0 0 0 3.454.928l3.661-.223a5.68 5.68 0 0 1 5.414 3.128l1.65 3.283a5.7 5.7 0 0 0 2.527 2.526l3.317 1.668a5.68 5.68 0 0 1 3.128 5.414l-.223 3.66a5.7 5.7 0 0 0 .928 3.455l2.028 3.06a5.67 5.67 0 0 1 0 6.256l-2.028 3.077a5.74 5.74 0 0 0-.928 3.454l.223 3.661a5.68 5.68 0 0 1-3.128 5.414l-3.283 1.65a5.7 5.7 0 0 0-2.526 2.527l-1.668 3.317a5.68 5.68 0 0 1-5.414 3.128l-3.66-.223a5.7 5.7 0 0 0-3.455.928l-3.06 2.028a5.67 5.67 0 0 1-6.256 0l-3.076-2.028a5.74 5.74 0 0 0-3.455-.928l-3.661.223a5.68 5.68 0 0 1-5.414-3.128l-1.65-3.283a5.7 5.7 0 0 0-2.527-2.526L6.79 51.734a5.68 5.68 0 0 1-3.128-5.414l.223-3.66a5.7 5.7 0 0 0-.928-3.455l-2.01-3.077a5.67 5.67 0 0 1 0-6.256l2.01-3.06a5.74 5.74 0 0 0 .928-3.454l-.223-3.661a5.68 5.68 0 0 1 3.128-5.414l3.283-1.65a5.8 5.8 0 0 0 2.544-2.561l1.65-3.283a5.68 5.68 0 0 1 5.414-3.128l3.66.223a5.7 5.7 0 0 0 3.455-.928zM46.75 33a13.75 13.75 0 1 0-27.5 0 13.75 13.75 0 0 0 27.5 0M.223 75.934l7.408-17.617a.13.13 0 0 1 .069.069l1.65 3.283a11.21 11.21 0 0 0 10.656 6.153l3.661-.224c.034 0 .086 0 .12.035l3.06 2.028a11.7 11.7 0 0 0 2.767 1.323l-6.463 15.349A2.72 2.72 0 0 1 20.867 88a2.73 2.73 0 0 1-2.544-1.237l-5.534-8.474-9.643 1.427a2.81 2.81 0 0 1-2.578-1.032c-.619-.773-.739-1.839-.36-2.75zm42.625 10.382-6.462-15.332c.962-.309 1.89-.739 2.767-1.323l3.06-2.028c.034-.017.068-.035.12-.035l3.66.224a11.21 11.21 0 0 0 10.657-6.153l1.65-3.283a.13.13 0 0 1 .069-.069l7.425 17.617c.378.911.24 1.96-.361 2.75a2.72 2.72 0 0 1-2.578 1.032l-9.642-1.427-5.535 8.456a2.73 2.73 0 0 1-2.544 1.238 2.75 2.75 0 0 1-2.286-1.667"/></g><defs><clipPath id="a"><path fill="#fff" d="M0 0h66v88H0z"/></clipPath></defs></svg>
